X: 16785
T: Harp And The Shamrock, The
R: hornpipe
M: 4/4
K: Gmajor
|:gf|edBc dBGB|AGEF GA(3Bcd|e2ed efge|dBAG A2BA|
GEED E2DE|GABG A2gf|eage dBGB|AGGF G2:|
|:(3Bcd|e2ed efgf|eddB d2BA|GABG cdec|dBAG (3ABc BA|
GEED D3E|GABG A2gf|eage dBGB|AGGF G2:|

